X:1
T: Stately Manor
N:
C:Charles Bolton
S: Play  3  times
A:
O:
R:
M:4/4
K:D
I:speed 200
%W: A1
% voice 1 (1 lines, 28 notes)
K:D
M:4/4
L:1/16
A6 G2 F4 G4 |A16 |B6 c2 d2 c2 B4 |c4 A4 F4 A4 |G6 A2 B2 A2 G4 |A4 F4 D4 A4 |G6 F2 E4 D4 |E16 |
%W: A2
% voice 1 (1 lines, 28 notes)
A6 G2 F4 G4 |A16 |B6 c2 d2 c2 B4 |c4 A4 F4 A4 |G6 A2 B2 A2 G4 |A4 F4 D4 A4 |G6 F2 E4 D4 |E16 |
%W: B1
% voice 1 (1 lines, 32 notes)
E6 F2 G2 F2 E4 |A4 F4 D4 A4 |B6 c2 d4 e4 |c4 A4 f4 e4 |d8 d4 c2 B2 |A4 F2 E2 D4 E2 F2 |G6 E2 D4 C4 |D16 |
%W: B2
% voice 1 (1 lines, 32 notes)
E6 F2 G2 F2 E4 |A4 F4 D4 A4 |B6 c2 d4 e4 |c4 A4 f4 e4 |d8 d4 c2 B2 |A4 F2 E2 D4 E2 F2 |G6 E2 D4 C4 |D16 ||
